src/1-subject/kid-walk.svg

<svg width="1300" height="1000" viewBox="0 0 1300 1000" fill="none" xmlns="http://www.w3.org/2000/svg"><path d="M157.638 585.885c.21-1.202 9.91-35.936 22.803-62.382 13.608-24.586 19.802-34.861 50.328-34.494 4.413.053 10.423 3.143 12.666 6.972C254.33 514.581 280.5 556 280.5 556l46.5 36.5 20.533 4.31c8.768 1.84 12.16 12.556 6.046 19.105a.34.34 0 0 1-.193.105l-27.227 4.694a4.998 4.998 0 0 1-3.153-.489L259 587l6.766 63.836L299.9 765.694l7.355 102.747 11.55 1.482c8.116 1.041 14.195 7.95 14.195 16.132l-48.547 13.944h-25.009l-1.104-5.504a4.881 4.881 0 0 1-4.857-4.391l-10.589-104.595-18.32-58.346-13.975 58.346-53.696 96.877 4.986 2.824a16.996 16.996 0 0 1 8.622 14.789h-45.973L101 886.789l7.723-11.009a5.01 5.01 0 0 1-1.53-6.507l45.664-83.764 22.803-123.297-24.798 35.294a.675.675 0 0 1-.579.287c-9.333-.351-15.511-9.829-12.067-18.51l6.918-17.438s6.62-42.2 12.504-75.96Z" fill="#fff"/><path d="m317.611 874.539-16.235-1.25-8.408-107.177-33.14-114.128c-10.315-117.02-19.422-146.981-23.427-154.652-1.079-2.066-3.307-2.9-5.632-3.052-8.318-.544-29.721.742-43.329 25.663-13.657 25.011-24.86 66.929-24.86 66.929l-12.43 76.451-7.478 20.204c-1.692 4.569 1.689 9.426 6.562 9.426a.35.35 0 0 0 .289-.154l20.004-29.476 15.72-43.529 25.342-71.721a1.06 1.06 0 0 1 2.011.67l-21.942 70.115a5.059 5.059 0 0 0-.225 1.912c.497 6.232 4.27 41.427 28.083 80.23 1.097 1.787 31.312 84.499 31.312 84.499l9.492 100.248c.356 3.759 4.883 6.71 5.546 10.428l.682 3.824 52.379-15.201c4.332-1.257 7.587-6.01 3.95-8.68a8.267 8.267 0 0 0-4.266-1.579Z" fill="#000"/><path d="m159.89 889.583-9.374-4.573 53.742-99.075s18.866-69.097 16.817-72.387c-36.193-58.129-32.902-89.57-32.902-89.57l-28.517 161.957-45.449 83.207c-1.913 3.503-.359 8.995-2.594 12.303l-2.408 3.565L136.258 900h29.248v-1.43a10 10 0 0 0-5.616-8.987Zm97.609-310.029c-11.04-68.215-16.09-77.853-16.476-78.515l-.024-.039.024.039L276 558.5l49.499 39 21.316 3.911c5.119.939 7.235 7.119 3.766 10.998a.33.33 0 0 1-.202.108L325.499 616s-67.59-33.912-68-36.446Z" fill="#000"/><path d="M209.405 487.258c3.455 1.281 9.906 1.738 11.595 1.742 0 0 7.609-.063 12.04-1.742 4.995-1.892 7.777-3.739 11.149-7.804 2.234-2.693 3.993-7.285 4.825-9.723.371-1.084.623-2.2.816-3.329l3.724-21.821s.453-3.178.446-5.226c-.018-4.87-.684-7.729-2.676-12.194-2.046-4.585-3.836-7.039-7.581-10.451-3.992-3.637-6.87-5.226-12.04-6.94-4.015-1.331-6.464-1.736-10.703-1.77-4.549.152-6.243.435-10.585 1.77-4.346 1.436-8.782 3.98-12.158 6.94-3.376 2.959-5.739 6.462-7.581 10.451-1.843 3.99-2.674 7.841-2.676 12.194 0 1.641.183 3.603.446 5.226l4.422 21.514a23.806 23.806 0 0 0 1.027 3.634c.976 2.585 2.915 7.328 4.808 9.69 2.681 3.346 6.57 6.307 10.702 7.839Z" fill="#fff"/><path d="M211.838 481.516c2.879 1.091 8.255 1.481 9.662 1.484 0 0 6.341-.054 10.034-1.484 4.162-1.612 6.48-3.185 9.29-6.648 1.8-2.217 3.229-5.946 3.949-8.069.361-1.063.603-2.161.788-3.268l3.067-18.37s.378-2.707.372-4.451c-.015-4.149-.57-6.584-2.23-10.387-1.705-3.906-3.196-5.997-6.317-8.904-3.327-3.098-5.726-4.451-10.034-5.911-3.345-1.134-5.387-1.479-8.919-1.508-3.791.13-5.203.371-8.821 1.508-3.621 1.223-7.319 3.39-10.132 5.911-2.813 2.521-4.782 5.505-6.317 8.904-1.536 3.398-2.229 6.678-2.23 10.387 0 1.398.153 3.069.372 4.451l3.636 18.086c.244 1.214.559 2.412.992 3.572.838 2.244 2.396 6.077 3.919 8.02 2.234 2.85 5.475 5.372 8.919 6.677Z" fill="#000"/><path d="M381 472.01c.428-1.606 19.472-48.964 37-84.998 18.5-33.499 32-47.499 73.5-46.999 6 .072 11.994 4 14.5 9.5 18 39.499 67 182.996 67 182.996l14.111 14.317c10.929 11.09 10.645 28.985-.63 39.723a.836.836 0 0 1-1.036.093l-42.392-27.94a5.016 5.016 0 0 1-1.651-1.804l-9.902-18.39 3.5 22 60 156.496 10 139.997 17.55 2.257c9.978 1.282 17.45 9.777 17.45 19.836v1.907L574 900h-34l-1.5-7.5a6.636 6.636 0 0 1-6.603-5.969L517.5 744.004 479 664.506l-9 79.498-59 131.997 8.372 4.751a20 20 0 0 1 10.128 17.394V900H367l-32-17.999 10.5-15a7.52 7.52 0 0 1-2.604-9.113L391.5 744.004l30-228.504 6-24.5-7 22-30.5 69.508-37.268 38.757a.742.742 0 0 1-.566.228c-11.078-.452-17.786-12.427-12.386-22.109L357 568.508s10-44.008 24-96.498Z" fill="#fff"/><path d="M620.921 865.273 597.5 863.47 586 716.889l-59-156.087c-14.676-166.492-27.563-204.128-32.668-212.635-1.199-1.999-3.466-2.737-5.787-2.948-10.284-.933-41.184-.461-60.546 34.998C409.321 414.423 388 471.752 388 471.752l-26 100.559-17.082 29.553c-3.074 5.318.764 11.969 6.906 11.969a.4.4 0 0 0 .295-.13l32.381-35.392L415 510l30.878-86.933a.518.518 0 0 1 .996.276l-18.623 92.194a7.092 7.092 0 0 0-.075 2.478c1.242 8.247 9.629 56.549 42.324 109.824 1.5 2.444 56.5 115.564 56.5 115.564l12.982 137.104c.017.185.043.367.076.546.89 4.763 6.562 8.404 7.412 13.174L548.5 900l81.672-23.703-.02-1.221a10 10 0 0 0-9.231-9.803Z" fill="#000"/><path d="M468.324 340c3.926 1.471 11.257 1.995 13.176 2 0 0 8.646-.072 13.682-2 5.676-2.172 8.837-4.293 12.669-8.96 2.619-3.188 4.662-8.697 5.57-11.42.358-1.076.606-2.181.795-3.3l4.277-25.32s.516-3.649.507-6c-.02-5.591-.777-8.874-3.041-14-2.325-5.265-4.358-8.083-8.614-12-4.537-4.176-7.807-6-13.683-7.968-4.561-1.528-7.345-1.993-12.162-2.032-5.17.175-7.095.5-12.029 2.032-4.938 1.649-9.979 4.57-13.816 7.968-3.836 3.398-6.521 7.42-8.614 12-2.094 4.58-3.039 9.002-3.041 14 .001 1.885.208 4.137.507 6l5.084 24.993a24.33 24.33 0 0 0 1.005 3.605c1.072 2.894 3.346 8.603 5.566 11.402 3.047 3.841 7.466 7.241 12.162 9Z" fill="#fff"/><path d="M470.432 334.258c3.298 1.281 9.456 1.738 11.068 1.742 0 0 7.263-.063 11.493-1.742 4.767-1.892 7.423-3.739 10.642-7.804 2.15-2.714 3.839-7.36 4.625-9.782.339-1.045.572-2.118.748-3.202l3.566-21.889s.433-3.178.426-5.226c-.017-4.87-.652-7.729-2.554-12.194-1.953-4.585-3.662-7.039-7.237-10.451-3.811-3.637-6.558-5.226-11.493-6.94-3.832-1.331-6.17-1.736-10.216-1.77-4.343.152-5.96.435-10.104 1.77-4.148 1.436-8.383 3.98-11.605 6.94-3.223 2.959-5.478 6.462-7.237 10.451-1.759 3.99-2.552 7.841-2.554 12.194 0 1.641.175 3.603.426 5.226l4.234 21.584c.234 1.19.535 2.363.946 3.504.924 2.57 2.789 7.37 4.61 9.75 2.56 3.346 6.272 6.307 10.216 7.839Zm-54.048 552.503L401.5 879.5 461 744s15.802-94.5 13-99c-49.5-79.5-47-122.5-47-122.5L400 744l-48.665 113.551a7.343 7.343 0 0 0-.174.446c-1.792 5.038.239 12.03-2.754 16.461L345 879.5l37 20.5h40v-4.252a10 10 0 0 0-5.616-8.987ZM501 351s23 83.5 27 166c.17 3.507 20.95 36.622 20.95 36.622l34.098 23.565a.71.71 0 0 0 .868-.046c5.873-5.073 6.593-13.918 1.618-19.873L566.5 534.485 544 468l-43-117Z" fill="#000"/></svg>

<svg width="1300" height="1000" viewBox="0 0 1300 1000" fill="none" xmlns="http://www.w3.org/2000/svg">
<path d="M157.638 585.885C157.848 584.683 167.548 549.949 180.441 523.503C194.049 498.917 200.243 488.642 230.769 489.009C235.182 489.062 241.192 492.152 243.435 495.981C254.33 514.581 280.5 556 280.5 556L327 592.5L347.533 596.81C356.301 598.65 359.693 609.366 353.579 615.915C353.528 615.971 353.46 616.007 353.386 616.02L326.159 620.714C325.083 620.9 323.975 620.728 323.006 620.225L259 587L265.766 650.836L299.9 765.694L307.255 868.441L318.805 869.923C326.921 870.964 333 877.873 333 886.055L284.453 899.999H259.444L258.34 894.495C255.834 894.495 253.735 892.598 253.483 890.104L242.894 785.509L224.574 727.163L210.599 785.509L156.903 882.386L161.889 885.21C167.217 888.227 170.511 893.876 170.511 899.999H124.538L101 886.789L108.723 875.78C106.63 874.318 105.97 871.515 107.193 869.273L152.857 785.509L175.66 662.212L150.862 697.506C150.73 697.694 150.512 697.802 150.283 697.793C140.95 697.442 134.772 687.964 138.216 679.283L145.134 661.845C145.134 661.845 151.754 619.645 157.638 585.885Z" fill="white"/>
<path d="M317.611 874.539L301.376 873.289L292.968 766.112L259.828 651.984C249.513 534.964 240.406 505.003 236.401 497.332C235.322 495.266 233.094 494.432 230.769 494.28C222.451 493.736 201.048 495.022 187.44 519.943C173.783 544.954 162.58 586.872 162.58 586.872L150.15 663.323L142.672 683.527C140.98 688.096 144.361 692.953 149.234 692.953C149.35 692.953 149.458 692.895 149.523 692.799L169.527 663.323L185.247 619.794L210.589 548.073C210.738 547.65 211.139 547.366 211.588 547.366C212.304 547.366 212.814 548.061 212.6 548.743L190.658 618.858C190.465 619.477 190.381 620.124 190.433 620.77C190.93 627.002 194.703 662.197 218.516 701C219.613 702.787 249.828 785.499 249.828 785.499L259.32 885.747V885.747C259.676 889.506 264.203 892.457 264.866 896.175L265.548 899.999L317.927 884.798C322.259 883.541 325.514 878.788 321.877 876.118C320.668 875.231 319.206 874.662 317.611 874.539Z" fill="black"/>
<path d="M159.89 889.583L150.516 885.01L204.258 785.935C204.258 785.935 223.124 716.838 221.075 713.548C184.882 655.419 188.173 623.978 188.173 623.978L159.656 785.935L114.207 869.142V869.142C112.294 872.645 113.848 878.137 111.613 881.445L109.205 885.01L136.258 900H165.506V898.57C165.506 894.747 163.326 891.259 159.89 889.583Z" fill="black"/>
<path d="M257.499 579.554C246.459 511.339 241.409 501.701 241.023 501.039L240.999 501C240.999 501 241.007 501.012 241.023 501.039L276 558.5L325.499 597.5L346.815 601.411C351.934 602.35 354.05 608.53 350.581 612.409C350.529 612.468 350.457 612.506 350.379 612.517L325.499 616C325.499 616 257.909 582.088 257.499 579.554Z" fill="black"/>
<path d="M209.405 487.258C212.86 488.539 219.311 488.996 221 489C221 489 228.609 488.937 233.04 487.258C238.035 485.366 240.817 483.519 244.189 479.454C246.423 476.761 248.182 472.169 249.014 469.731C249.385 468.647 249.637 467.531 249.83 466.402L253.554 444.581C253.554 444.581 254.007 441.403 254 439.355C253.982 434.485 253.316 431.626 251.324 427.161C249.278 422.576 247.488 420.122 243.743 416.71C239.751 413.073 236.873 411.484 231.703 409.77C227.688 408.439 225.239 408.034 221 408C216.451 408.152 214.757 408.435 210.415 409.77C206.069 411.206 201.633 413.75 198.257 416.71C194.881 419.669 192.518 423.172 190.676 427.161C188.833 431.151 188.002 435.002 188 439.355C188 440.996 188.183 442.958 188.446 444.581L192.868 466.095C193.122 467.331 193.449 468.549 193.895 469.729C194.871 472.314 196.81 477.057 198.703 479.419C201.384 482.765 205.273 485.726 209.405 487.258Z" fill="white"/>
<path d="M211.838 481.516C214.717 482.607 220.093 482.997 221.5 483C221.5 483 227.841 482.946 231.534 481.516C235.696 479.904 238.014 478.331 240.824 474.868C242.624 472.651 244.053 468.922 244.773 466.799C245.134 465.736 245.376 464.638 245.561 463.531L248.628 445.161C248.628 445.161 249.006 442.454 249 440.71C248.985 436.561 248.43 434.126 246.77 430.323C245.065 426.417 243.574 424.326 240.453 421.419C237.126 418.321 234.727 416.968 230.419 415.508C227.074 414.374 225.032 414.029 221.5 414C217.709 414.13 216.297 414.371 212.679 415.508C209.058 416.731 205.36 418.898 202.547 421.419C199.734 423.94 197.765 426.924 196.23 430.323C194.694 433.721 194.001 437.001 194 440.71C194 442.108 194.153 443.779 194.372 445.161L198.008 463.247C198.252 464.461 198.567 465.659 199 466.819C199.838 469.063 201.396 472.896 202.919 474.839C205.153 477.689 208.394 480.211 211.838 481.516Z" fill="black"/>
<path d="M381 472.01C381.428 470.404 400.472 423.046 418 387.012C436.5 353.513 450 339.513 491.5 340.013C497.5 340.085 503.494 344.013 506 349.513C524 389.012 573 532.509 573 532.509L587.111 546.826C598.04 557.916 597.756 575.811 586.481 586.549C586.2 586.817 585.77 586.856 585.445 586.642L543.053 558.702C542.362 558.246 541.795 557.626 541.402 556.898L531.5 538.508L535 560.508L595 717.004L605 857.001L622.55 859.258C632.528 860.54 640 869.035 640 879.094V881.001L574 900H540L538.5 892.5C535.093 892.5 532.239 889.921 531.897 886.531L517.5 744.004L479 664.506L470 744.004L411 876.001L419.372 880.752C425.632 884.305 429.5 890.948 429.5 898.146V900H367L335 882.001L345.5 867.001C342.586 864.961 341.5 861.159 342.896 857.888L391.5 744.004L421.5 515.5L427.5 491L420.5 513L390 582.508L352.732 621.265C352.584 621.419 352.378 621.502 352.166 621.493C341.088 621.041 334.38 609.066 339.78 599.384L357 568.508C357 568.508 367 524.5 381 472.01Z" fill="white"/>
<path d="M620.921 865.273L597.5 863.47L586 716.889L527 560.802C512.324 394.31 499.437 356.674 494.332 348.167C493.133 346.168 490.866 345.43 488.545 345.219C478.261 344.286 447.361 344.758 427.999 380.217C409.321 414.423 388 471.752 388 471.752L362 572.311L344.918 601.864C341.844 607.182 345.682 613.833 351.824 613.833C351.936 613.833 352.043 613.786 352.119 613.703L384.5 578.311L415 510L445.878 423.067C445.951 422.86 446.147 422.722 446.366 422.722C446.693 422.722 446.938 423.022 446.874 423.343L428.251 515.537C428.085 516.358 428.051 517.186 428.176 518.015C429.418 526.262 437.805 574.564 470.5 627.839C472 630.283 527 743.403 527 743.403L539.982 880.507C539.999 880.692 540.025 880.874 540.058 881.053C540.948 885.816 546.62 889.457 547.47 894.227L548.5 900L630.172 876.297L630.152 875.076C630.066 869.916 626.067 865.669 620.921 865.273Z" fill="black"/>
<path d="M468.324 340C472.25 341.471 479.581 341.995 481.5 342C481.5 342 490.146 341.928 495.182 340C500.858 337.828 504.019 335.707 507.851 331.04C510.47 327.852 512.513 322.343 513.421 319.62C513.779 318.544 514.027 317.439 514.216 316.32L518.493 291C518.493 291 519.009 287.351 519 285C518.98 279.409 518.223 276.126 515.959 271C513.634 265.735 511.601 262.917 507.345 259C502.808 254.824 499.538 253 493.662 251.032C489.101 249.504 486.317 249.039 481.5 249C476.33 249.175 474.405 249.5 469.471 251.032C464.533 252.681 459.492 255.602 455.655 259C451.819 262.398 449.134 266.42 447.041 271C444.947 275.58 444.002 280.002 444 285C444.001 286.885 444.208 289.137 444.507 291L449.591 315.993C449.84 317.218 450.162 318.425 450.596 319.598C451.668 322.492 453.942 328.201 456.162 331C459.209 334.841 463.628 338.241 468.324 340Z" fill="white"/>
<path d="M470.432 334.258C473.73 335.539 479.888 335.996 481.5 336C481.5 336 488.763 335.937 492.993 334.258C497.76 332.366 500.416 330.519 503.635 326.454C505.785 323.74 507.474 319.094 508.26 316.672C508.599 315.627 508.832 314.554 509.008 313.47L512.574 291.581C512.574 291.581 513.007 288.403 513 286.355C512.983 281.485 512.348 278.626 510.446 274.161C508.493 269.576 506.784 267.122 503.209 263.71C499.398 260.073 496.651 258.484 491.716 256.77C487.884 255.439 485.546 255.034 481.5 255C477.157 255.152 475.54 255.435 471.396 256.77C467.248 258.206 463.013 260.75 459.791 263.71C456.568 266.669 454.313 270.172 452.554 274.161C450.795 278.151 450.002 282.002 450 286.355C450 287.996 450.175 289.958 450.426 291.581L454.66 313.165C454.894 314.355 455.195 315.528 455.606 316.669C456.53 319.239 458.395 324.039 460.216 326.419C462.776 329.765 466.488 332.726 470.432 334.258Z" fill="black"/>
<path d="M416.384 886.761L401.5 879.5L461 744C461 744 476.802 649.5 474 645C424.5 565.5 427 522.5 427 522.5L400 744L351.335 857.551C351.272 857.698 351.214 857.847 351.161 857.997C349.369 863.035 351.4 870.027 348.407 874.458L345 879.5L382 900H422V895.748C422 891.925 419.82 888.437 416.384 886.761Z" fill="black"/>
<path d="M501 351C501 351 524 434.5 528 517C528.17 520.507 548.95 553.622 548.95 553.622L583.048 577.187C583.314 577.371 583.671 577.352 583.916 577.141C589.789 572.068 590.509 563.223 585.534 557.268L566.5 534.485L544 468L501 351Z" fill="black"/>
</svg>
